X:31
T: Wolia jiejiao ding bainian
N: C1529
O: China, Guangxi, Yishan
S: II, 543]
R: Xiaodiao, Qingmaluozi diao. Nann qing]
M: 2/4
L: 1/16
K: D
d2f2f2e2 | ffdfefed | dffed2ed | B4
B2BdedB2 | BdABd4 | e2edB2BA | eeedBdA2 | B2dBA4- | A8
f2fef2e2 | fed2f2e2 | ffdee3f | dffed2ed | B4
f2f2e2d2 | BdABd4 | edBdA2A2 | eeedBdA2 | B2dBA4- | A8

